X:23
T:Foxhunter's Jig, The
Z:Madison
R:slip jig
M:9/8
L:1/8
E:13
K:D
FDF F2DG2 E|FDF F2DE2 D|FDF F2D G2B|AFD DEF E2D:|
~B3 BAG FGA|B2EE2FG2B|ABcdcB ABc|d2DD2FE2D:|
fgf f2dg2e|fgf f2de2d|fgf f2d g2b|afd def e2 d:|
gfe dcB AGF|B2E E2F G2B|ABc dcB ABc|d2D DEF E2 D:|
